svg/forbidden.svg

<svg width="32" height="32" viewBox="0 0 32 32" fill="none" xmlns="http://www.w3.org/2000/svg">
<path fill-rule="evenodd" clip-rule="evenodd" d="M26 16C26 21.523 21.523 26 16 26C10.477 26 6 21.523 6 16C6 10.477 10.477 6 16 6C21.523 6 26 10.477 26 16ZM28 16C28 22.627 22.627 28 16 28C9.373 28 4 22.627 4 16C4 9.373 9.373 4 16 4C22.627 4 28 9.373 28 16Z" fill="black"/>
<path d="M7.51474 24.4853C7.12442 24.0949 7.08482 23.501 7.42635 23.1594L23.1595 7.42631C23.501 7.08477 24.095 7.12437 24.4853 7.51469C24.8756 7.90502 24.9152 8.49899 24.5737 8.84052L8.84057 24.5736C8.49904 24.9152 7.90507 24.8756 7.51474 24.4853Z" fill="black"/>
</svg>

<svg width="32" height="32" fill="none" xmlns="http://www.w3.org/2000/svg"><path fill-rule="evenodd" clip-rule="evenodd" d="M26 16c0 5.523-4.477 10-10 10S6 21.523 6 16 10.477 6 16 6s10 4.477 10 10zm2 0c0 6.627-5.373 12-12 12S4 22.627 4 16 9.373 4 16 4s12 5.373 12 12z" fill="#000"/><path d="M7.515 24.485c-.39-.39-.43-.984-.089-1.326L23.16 7.426c.341-.341.935-.302 1.325.089.39.39.43.984.089 1.326L8.84 24.574c-.342.341-.936.302-1.326-.089z" fill="#000"/></svg>
